papirus/16x16/mimetypes/text-x-po.svg

<?xml version="1.0" encoding="UTF-8" standalone="no"?>
<svg
   xmlns:dc="http://purl.org/dc/elements/1.1/"
   xmlns:cc="http://creativecommons.org/ns#"
   xmlns:rdf="http://www.w3.org/1999/02/22-rdf-syntax-ns#"
   xmlns:svg="http://www.w3.org/2000/svg"
   xmlns="http://www.w3.org/2000/svg"
   xmlns:sodipodi="http://sodipodi.sourceforge.net/DTD/sodipodi-0.dtd"
   xmlns:inkscape="http://www.inkscape.org/namespaces/inkscape"
   id="svg2"
   height="16px"
   width="16px"
   version="1.1"
   viewBox="0 0 16 16"
   inkscape:version="0.91 r"
   sodipodi:docname="text-x-po.svg">
  <defs
     id="defs11" />
  <sodipodi:namedview
     pagecolor="#ffffff"
     bordercolor="#666666"
     borderopacity="1"
     objecttolerance="10"
     gridtolerance="10"
     guidetolerance="10"
     inkscape:pageopacity="0"
     inkscape:pageshadow="2"
     inkscape:window-width="1535"
     inkscape:window-height="876"
     id="namedview9"
     showgrid="false"
     showguides="false"
     inkscape:zoom="36.32"
     inkscape:cx="11.094413"
     inkscape:cy="8"
     inkscape:window-x="65"
     inkscape:window-y="24"
     inkscape:window-maximized="1"
     inkscape:current-layer="svg2" />
  <metadata
     id="metadata17">
    <rdf:RDF>
      <cc:Work
         rdf:about="">
        <dc:format>image/svg+xml</dc:format>
        <dc:type
           rdf:resource="http://purl.org/dc/dcmitype/StillImage" />
      </cc:Work>
    </rdf:RDF>
  </metadata>
  <path
     style="fill:#ebe8d7"
     inkscape:connector-curvature="0"
     d="M 3.75,1 C 3.33276,1 3,1.33276 3,1.75 l 0,13.5 C 3,15.667192 3.332808,16 3.75,16 l 10.5,0 C 14.6676,16 15,15.6676 15,15.25 L 15,5.5 10.875,5.125 10.5,1 Z"
     id="path5" />
  <path
     style="fill-opacity:0.50196043"
     d="M 6.84375,9 C 6.84375,9 6,9.0007047 6,9.7949219 L 6,12.207031 C 6,12.644782 6.3852405,13.028124 6.8574219,13 l 1.8691406,0 1.0917969,1 1.0898436,-1 0.234375,0 C 11.142578,13 12,13.001248 12,12.207031 L 12,9.7949219 C 12,9.0004158 11.142578,9 11.142578,9 Z M 7,9.5 l 4,0 0,0.5 -4,0 z m 0,1 4,0 0,0.5 -4,0 z m 0,1 2,0 0,0.5 -2,0 z"
     id="path4149"
     inkscape:connector-curvature="0"
     sodipodi:nodetypes="csssccccssccccccccccccccccc" />
  <path
     style="fill:#f8f8f0"
     inkscape:connector-curvature="0"
     d="m 10.5,1 0,3.75 c 0,0.41256 0.33744,0.75 0.75,0.75 l 3.75,0 z"
     id="path9" />
  <path
     style="fill:#ffffff;fill-opacity:0.2"
     inkscape:connector-curvature="0"
     d="M 3.75,1 C 3.33276,1 3,1.33276 3,1.75 l 0,0.6 C 3,1.93276 3.33276,1.6 3.75,1.6 l 6.75,0 0,-0.6 z"
     id="path11" />
</svg>

<?xml version="1.0" encoding="UTF-8" standalone="no"?>
<svg id="svg2" xmlns:rdf="http://www.w3.org/1999/02/22-rdf-syntax-ns#" xmlns="http://www.w3.org/2000/svg" height="16px" width="16px" version="1.1" xmlns:cc="http://creativecommons.org/ns#" viewBox="0 0 16 16" xmlns:dc="http://purl.org/dc/elements/1.1/">
 <metadata id="metadata17">
  <rdf:RDF>
   <cc:Work rdf:about="">
    <dc:format>image/svg+xml</dc:format>
    <dc:type rdf:resource="http://purl.org/dc/dcmitype/StillImage"/>
   </cc:Work>
  </rdf:RDF>
 </metadata>
 <path id="path5" fill="#ccc" d="m3.75 1c-0.4172 0-0.75 0.3328-0.75 0.75v13.5c0 0.417 0.3328 0.75 0.75 0.75h10.5c0.418 0 0.75-0.332 0.75-0.75v-9.75l-4.125-0.375-0.375-4.125z"/>
 <path id="path4149" fill-opacity=".50196" d="m6.8438 9s-0.8438 0.0007-0.8438 0.7949v2.4121c0 0.438 0.3852 0.821 0.8574 0.793h1.8691l1.0918 1 1.0898-1h0.23438c0.001 0 0.858 0.001 0.858-0.793v-2.4121c0-0.7945-0.857-0.7949-0.857-0.7949zm0.1562 0.5h4v0.5h-4zm0 1h4v0.5h-4zm0 1h2v0.5h-2z"/>
 <path id="path9" fill="#f8f8f0" d="m10.5 1v3.75c0 0.41256 0.33744 0.75 0.75 0.75h3.75z"/>
 <path id="path11" fill-opacity=".2" fill="#fff" d="m3.75 1c-0.4172 0-0.75 0.3328-0.75 0.75v0.6c0-0.4172 0.3328-0.75 0.75-0.75h6.75v-0.6z"/>
</svg>
